icons/mute-16.svg

<svg width="16" height="16" viewBox="0 0 16 16" xmlns="http://www.w3.org/2000/svg">
  <path fill-rule="evenodd" clip-rule="evenodd" d="M8 2.75C8.00009 2.60653 7.95903 2.46605 7.88169 2.34522C7.80436 2.22438 7.69398 2.12826 7.56367 2.06826C7.43335 2.00826 7.28856 1.9869 7.14647 2.0067C7.00437 2.02651 6.87094 2.08665 6.762 2.18L3.472 5H1.75C1.28587 5 0.840752 5.18437 0.512563 5.51256C0.184374 5.84075 0 6.28587 0 6.75L0 9.25C0 10.216 0.784 11 1.75 11H3.473L6.762 13.82C6.87094 13.9133 7.00437 13.9735 7.14647 13.9933C7.28856 14.0131 7.43335 13.9917 7.56367 13.9317C7.69398 13.8717 7.80436 13.7756 7.88169 13.6548C7.95903 13.5339 8.00009 13.3935 8 13.25V2.75ZM4.238 6.32L6.5 4.38V11.62L4.238 9.68C4.10201 9.56371 3.92893 9.49987 3.75 9.5H1.75C1.6837 9.5 1.62011 9.47366 1.57322 9.42678C1.52634 9.37989 1.5 9.3163 1.5 9.25V6.75C1.5 6.6837 1.52634 6.62011 1.57322 6.57322C1.62011 6.52634 1.6837 6.5 1.75 6.5H3.75C3.92893 6.50013 4.10201 6.43629 4.238 6.32ZM11.28 5.22C11.2113 5.14631 11.1285 5.08721 11.0365 5.04622C10.9445 5.00523 10.8452 4.98319 10.7445 4.98141C10.6438 4.97963 10.5438 4.99816 10.4504 5.03588C10.357 5.0736 10.2722 5.12974 10.201 5.20096C10.1297 5.27218 10.0736 5.35701 10.0359 5.4504C9.99816 5.54379 9.97963 5.64382 9.98141 5.74452C9.98318 5.84523 10.0052 5.94454 10.0462 6.03654C10.0872 6.12854 10.1463 6.21134 10.22 6.28L11.94 8L10.22 9.72C10.1463 9.78866 10.0872 9.87146 10.0462 9.96346C10.0052 10.0555 9.98318 10.1548 9.98141 10.2555C9.97963 10.3562 9.99816 10.4562 10.0359 10.5496C10.0736 10.643 10.1297 10.7278 10.201 10.799C10.2722 10.8703 10.357 10.9264 10.4504 10.9641C10.5438 11.0018 10.6438 11.0204 10.7445 11.0186C10.8452 11.0168 10.9445 10.9948 11.0365 10.9538C11.1285 10.9128 11.2113 10.8537 11.28 10.78L13 9.06L14.72 10.78C14.7887 10.8537 14.8715 10.9128 14.9635 10.9538C15.0555 10.9948 15.1548 11.0168 15.2555 11.0186C15.3562 11.0204 15.4562 11.0018 15.5496 10.9641C15.643 10.9264 15.7278 10.8703 15.799 10.799C15.8703 10.7278 15.9264 10.643 15.9641 10.5496C16.0018 10.4562 16.0204 10.3562 16.0186 10.2555C16.0168 10.1548 15.9948 10.0555 15.9538 9.96346C15.9128 9.87146 15.8537 9.78866 15.78 9.72L14.06 8L15.78 6.28C15.9125 6.13783 15.9846 5.94978 15.9812 5.75548C15.9777 5.56118 15.899 5.37579 15.7616 5.23838C15.6242 5.10097 15.4388 5.02225 15.2445 5.01883C15.0502 5.0154 14.8622 5.08752 14.72 5.22L13 6.94L11.28 5.22Z"/>
</svg>

<svg xmlns="http://www.w3.org/2000/svg" width="16" height="16" viewBox="0 0 16 16"><path fill-rule="evenodd" d="M8 2.75a.75.75 0 00-1.238-.57L3.472 5H1.75A1.75 1.75 0 000 6.75v2.5C0 10.216.784 11 1.75 11h1.723l3.289 2.82A.75.75 0 008 13.25V2.75zM4.238 6.32L6.5 4.38v7.24L4.238 9.68a.75.75 0 00-.488-.18h-2a.25.25 0 01-.25-.25v-2.5a.25.25 0 01.25-.25h2a.75.75 0 00.488-.18zm7.042-1.1a.75.75 0 10-1.06 1.06L11.94 8l-1.72 1.72a.75.75 0 101.06 1.06L13 9.06l1.72 1.72a.75.75 0 101.06-1.06L14.06 8l1.72-1.72a.75.75 0 00-1.06-1.06L13 6.94l-1.72-1.72z"/></svg>
